X:1
T:Partition sans titre
C:Compositeur / Arrangeur
L:1/8
M:4/4
I:linebreak $
K:D
V:1 treble nm="Violon" snm="Vln."
V:1
"D" f2 a2 d2 f2 |"G" B2 ^A2"D" =A2 d2 |"A" cdef g2 ag |"D" fagf"A" e2 ag |"D" f2 a2 d2 f2 | %5
"G" B2 ^A2"D" =A2 d2 |"A" cdef gece |1"D" dfec d2 ag :|2"D" dfec d2 a2 |:[K:A]"E" g3 g gefg | %10
"A" aece AcEA |"E" G3 G GEFG |"A" AAce a2 a2 |"E" g3 g gefg |"A" aece f2 ed |"E" c2 B2 e2 G2 |1 %16
"A" AAce a2 a2 :|2"A" AAce a2 a=g |] %18
